X:91
T:T058B- Garry Owen.   Harlequin Amulet-- or Majic of Mona.
S:by Jackson of Cork. Campbell's 16th bk. of CD's, c 1801
Q:1/4=120
L:1/8
M:6/8
K:Adorian
g/f/|edc BAB|B3/2c/B Bgf|edc BAG|A3/2B/A Agf|\
edc BAG|B3/2c/BB2d|defg2B|A3/2B/AA2::\
c|(B/c/dB) (B/c/dB)|(B/c/dB) d2g|(c/d/ec) c/d/ec|\
(c/d/ec)e2f|g2ab2a|g2e edB|def g2B|A3/2B/AA2:|]

